!!!CDT:
!!!PTL: Il terzo libro de madrigali a cinque voci, in parte ancor concertati co 'l clavicembalo 
!!!PPP: Venice
!!!PPR: Alessandro Vincenzi
!!!PDT: 1621
!!!RISM: G 1807
!!!rime:
!!!AGN: Madrigal
!!!SCT: Tsg07019d
!!!SCA: Tsg07019d
!!!voices:
!!!COM: Ghizzolo, Giovanni
!!!OTL: Sovente, allor che su gli estivi ardori
**kern	**fb	**kern	**text	**kern	**text	**kern	**text	**kern	**text	**kern	**text
*part6	*part6	*part5	*part5	*part4	*part4	*part3	*part3	*part2	*part2	*part1	*part1
*staff6	*staff6	*staff5	*staff5	*staff4	*staff4	*staff3	*staff3	*staff2	*staff2	*staff1	*staff1
*I"Basso continuo	*	*I"Basso	*	*I"Quinto	*	*I"Tenore	*	*I"Alto	*	*I"Canto	*
*I'Bc	*	*I'B	*	*I'V	*	*I'T	*	*I'A	*	*I'C	*
*oclefF4	*	*oclefF4	*	*oclefC4	*	*oclefC4	*	*oclefC3	*	*oclefC1	*
*clefF4	*	*clefF4	*	*clefGv2	*	*clefGv2	*	*clefGv2	*	*clefG2	*
*k[b-]	*	*k[b-]	*	*k[b-]	*	*k[b-]	*	*k[b-]	*	*k[b-]	*
*F:	*	*F:	*	*F:	*	*F:	*	*F:	*	*F:	*
*M4/4	*	*M4/4	*	*M4/4	*	*M4/4	*	*M4/4	*	*M4/4	*
*omet(C)	*	*omet(C)	*	*omet(C)	*	*omet(C)	*	*omet(C)	*	*omet(C)	*
=1	=1	=1	=1	=1	=1	=1	=1	=1	=1	=1	=1
!	!	!	!	!	!	!	!	!	!	!LO:TX:a:t=Sopra l'Aria Romanesca. [Prima parte.]	!
2.B-y	.	1r	.	2r	.	8r	.	1r	.	1r	.
.	.	.	.	.	.	8B-y	So-	.	.	.	.
.	.	.	.	.	.	8B-y	-ven-	.	.	.	.
.	.	.	.	.	.	8B-y	-te, al-	.	.	.	.
.	.	.	.	8r	.	8B-yL	-l'hor	.	.	.	.
.	.	.	.	8d	So-	16c	.	.	.	.	.
.	.	.	.	.	.	16dJ	.	.	.	.	.
4A	.	.	.	8d	-ven-	8AL	.	.	.	.	.
.	.	.	.	8d	-te, al-	16B-y	.	.	.	.	.
.	.	.	.	.	.	16cJ	.	.	.	.	.
=2	=2	=2	=2	=2	=2	=2	=2	=2	=2	=2	=2
1G	.	1r	.	8dL	-l'hor	4.G	.	1r	.	1r	.
.	.	.	.	16e	.	.	.	.	.	.	.
.	.	.	.	16fJ	.	.	.	.	.	.	.
.	.	.	.	8cL	.	.	.	.	.	.	.
.	.	.	.	16d	.	8F	.	.	.	.	.
.	.	.	.	16e-XJ	.	.	.	.	.	.	.
.	.	.	.	8B-yL	.	8GL	.	.	.	.	.
.	.	.	.	8cJ	.	8AJ	.	.	.	.	.
.	.	.	.	16dL	.	16B-yL	.	.	.	.	.
.	.	.	.	16c	.	16A	.	.	.	.	.
.	.	.	.	16c	.	16A	.	.	.	.	.
.	.	.	.	16B-yJ	.	16GJ	.	.	.	.	.
=3	=3	=3	=3	=3	=3	=3	=3	=3	=3	=3	=3
2F	.	1r	.	8c	.	[2A	.	1r	.	1r	.
.	.	.	.	8A	ch'in	.	.	.	.	.	.
.	.	.	.	8B-y	su	.	.	.	.	.	.
.	.	.	.	8c	gli e-	.	.	.	.	.	.
2F	6	.	.	[2d	-sti-	8A]	.	.	.	.	.
.	.	.	.	.	.	8F	ch'in	.	.	.	.
.	.	.	.	.	.	8G	su	.	.	.	.
.	.	.	.	.	.	8A	gli e-	.	.	.	.
=4	=4	=4	=4	=4	=4	=4	=4	=4	=4	=4	=4
2G	.	1r	.	8d]	.	4.B-y	-sti-	1r	.	1r	.
.	.	.	.	8c	-vi ar-	.	.	.	.	.	.
.	.	.	.	8dL	-do-	.	.	.	.	.	.
.	.	.	.	8eJ	.	8G	.	.	.	.	.
2F	.	.	.	4f	.	8AL	.	.	.	.	.
.	.	.	.	.	.	8B-yJ	.	.	.	.	.
.	.	.	.	4F	.	[4c	.	.	.	.	.
=5	=5	=5	=5	=5	=5	=5	=5	=5	=5	=5	=5
1E-X	.	1r	.	8GL	.	4c]	.	1r	.	1r	.
.	.	.	.	16A	.	.	.	.	.	.	.
.	.	.	.	16B-yJ	.	.	.	.	.	.	.
.	.	.	.	8AL	.	16B-yL	-vi ar-	.	.	.	.
.	.	.	.	.	.	16A	.	.	.	.	.
.	.	.	.	16B-y	.	16G	.	.	.	.	.
.	.	.	.	16cJ	.	16FJ	.	.	.	.	.
.	.	.	.	8B-yL	.	4.G	-do-	.	.	.	.
.	.	.	.	16c	.	.	.	.	.	.	.
.	.	.	.	16dJ	.	.	.	.	.	.	.
.	.	.	.	4c	.	.	.	.	.	.	.
.	.	.	.	.	.	8A	.	.	.	.	.
=6	=6	=6	=6	=6	=6	=6	=6	=6	=6	=6	=6
2.D	#	1r	.	2A	-ri	2F#X	-ri	1r	.	1r	.
.	.	.	.	2r	.	2r	.	.	.	.	.
4E-X	.	.	.	.	.	.	.	.	.	.	.
=7	=7	=7	=7	=7	=7	=7	=7	=7	=7	=7	=7
4D	.	1r	.	2r	.	2r	.	1r	.	1r	.
4C	.	.	.	.	.	.	.	.	.	.	.
2BB-y	.	.	.	4r	.	4r	.	.	.	.	.
.	.	.	.	4d	Gia-	4B-y	Gia-	.	.	.	.
=8	=8	=8	=8	=8	=8	=8	=8	=8	=8	=8	=8
4B-y	.	1r	.	[2f	-cean	[2d	-cean	1r	.	1r	.
4A	.	.	.	.	.	.	.	.	.	.	.
2G	.	.	.	8f]	.	8d]	.	.	.	.	.
.	.	.	.	8d	le	8B-y	le	.	.	.	.
.	.	.	.	8.c	pe-	8.A	pe-	.	.	.	.
.	.	.	.	16B-y	-co-	16G	-co-	.	.	.	.
=9	=9	=9	=9	=9	=9	=9	=9	=9	=9	=9	=9
2.F	.	1r	.	4c	-rel-	4A	-rel-	1r	.	1r	.
.	.	.	.	4c	-le	4A	-le	.	.	.	.
.	.	.	.	4r	.	8r	.	.	.	.	.
.	.	.	.	.	.	8A	a	.	.	.	.
4G	.	.	.	4d	a	8dL	l'om-	.	.	.	.
.	.	.	.	.	.	8cJ	.	.	.	.	.
=10	=10	=10	=10	=10	=10	=10	=10	=10	=10	=10	=10
2G	.	1r	.	8gL	l'om-	8B-yL	.	1r	.	1r	.
.	.	.	.	8fJ	.	8AJ	.	.	.	.	.
.	.	.	.	8e-XL	.	8B-yL	.	.	.	.	.
.	.	.	.	8dJ	.	8AJ	.	.	.	.	.
2E-X	.	.	.	8e-XL	.	8GL	.	.	.	.	.
.	.	.	.	8dJ	.	8FJ	.	.	.	.	.
.	.	.	.	8cL	.	[4G	.	.	.	.	.
.	.	.	.	8B-yJ	.	.	.	.	.	.	.
=11	=11	=11	=11	=11	=11	=11	=11	=11	=11	=11	=11
2C	.	1r	.	4c	.	4G]	.	1r	.	1r	.
.	.	.	.	4B-y	-bra as-	4G	-bra as-	.	.	.	.
2D	.	.	.	2A	-si-	4G	-si-	.	.	.	.
.	.	.	.	.	.	4F#X	.	.	.	.	.
=12	=12	=12	=12	=12	=12	=12	=12	=12	=12	=12	=12
4GG	.	1r	.	2G	-se,	2G	-se,	1r	.	1r	.
2G	.	.	.	.	.	.	.	.	.	.	.
.	.	.	.	2r	.	2r	.	.	.	.	.
4F#X	.	.	.	.	.	.	.	.	.	.	.
=13	=13	=13	=13	=13	=13	=13	=13	=13	=13	=13	=13
4G	.	1r	.	2r	.	2r	.	1r	.	1r	.
4A	.	.	.	.	.	.	.	.	.	.	.
[2B-y	.	.	.	4r	.	4r	.	.	.	.	.
.	.	.	.	4d	Gia-	4B-y	Gia-	.	.	.	.
=14	=14	=14	=14	=14	=14	=14	=14	=14	=14	=14	=14
4B-]	.	1r	.	4B-y	-cean	4G	-cean	1r	.	1r	.
4A	.	.	.	(8cL	le	4A	le	.	.	.	.
.	.	.	.	8d)J	.	.	.	.	.	.	.
2G	.	.	.	(8e-XL	pe-	8B-yL	pe-	.	.	.	.
.	.	.	.	8d)J	.	[8AJ	.	.	.	.	.
.	.	.	.	(8cL	-co-	(8.A]L	.	.	.	.	.
.	.	.	.	8B-y)J	.	.	.	.	.	.	.
.	.	.	.	.	.	16G)J	.	.	.	.	.
=15	=15	=15	=15	=15	=15	=15	=15	=15	=15	=15	=15
2F	.	1r	.	4c	-rel-	4A	-co-	1r	.	1r	.
.	.	.	.	4c	-le	4A	-rel-	.	.	.	.
2D	.	.	.	4r	.	16AL	-le a	.	.	.	.
.	.	.	.	.	.	16G	.	.	.	.	.
.	.	.	.	.	.	16F	.	.	.	.	.
.	.	.	.	.	.	16EJ	.	.	.	.	.
.	.	.	.	16dL	a	4F	.	.	.	.	.
.	.	.	.	16c	.	.	.	.	.	.	.
.	.	.	.	16B-y	.	.	.	.	.	.	.
.	.	.	.	16AJ	.	.	.	.	.	.	.
=16	=16	=16	=16	=16	=16	=16	=16	=16	=16	=16	=16
2G	.	1r	.	4B-y	.	16B-yL	l'om-	1r	.	1r	.
.	.	.	.	.	.	16A	.	.	.	.	.
.	.	.	.	.	.	16G	.	.	.	.	.
.	.	.	.	.	.	16FJ	.	.	.	.	.
.	.	.	.	16e-XL	l'om-	2G	.	.	.	.	.
.	.	.	.	16d	.	.	.	.	.	.	.
.	.	.	.	16c	.	.	.	.	.	.	.
.	.	.	.	16B-yJ	.	.	.	.	.	.	.
4E-X	.	.	.	[2c	.	.	.	.	.	.	.
4C	.	.	.	.	.	16AL	-bra as-	.	.	.	.
.	.	.	.	.	.	16G	.	.	.	.	.
.	.	.	.	.	.	16F	.	.	.	.	.
.	.	.	.	.	.	16EJ	.	.	.	.	.
=17	=17	=17	=17	=17	=17	=17	=17	=17	=17	=17	=17
1D	.	1r	.	8c]L	.	4F#X	-si-	1r	.	1r	.
.	.	.	.	8AJ	.	.	.	.	.	.	.
.	.	.	.	8B-y	.	2G	.	.	.	.	.
.	.	.	.	8c	-bra as-	.	.	.	.	.	.
.	.	.	.	2A	-si-	.	.	.	.	.	.
.	.	.	.	.	.	4F#X	.	.	.	.	.
=18	=18	=18	=18	=18	=18	=18	=18	=18	=18	=18	=18
1GG	.	1r	.	1G	-se.	1G	-se.	1r	.	1r	.
=19||	=19||	=19||	=19||	=19||	=19||	=19||	=19||	=19||	=19||	=19||	=19||
!!LO:TX:a:t=[Seconda parte.]
2.B-y	.	1r	.	1r	.	1r	.	1r	.	4d	Ne
.	.	.	.	.	.	.	.	.	.	4e	la
.	.	.	.	.	.	.	.	.	.	8fL	scor-
.	.	.	.	.	.	.	.	.	.	8gJ	.
4A	.	.	.	.	.	.	.	.	.	8aL	.
.	.	.	.	.	.	.	.	.	.	8fJ	.
=20	=20	=20	=20	=20	=20	=20	=20	=20	=20	=20	=20
1G	.	1r	.	1r	.	1r	.	1r	.	8b-yL	-za
.	.	.	.	.	.	.	.	.	.	8ccJ	.
.	.	.	.	.	.	.	.	.	.	8ddL	.
.	.	.	.	.	.	.	.	.	.	8b-yJ	.
.	.	.	.	.	.	.	.	.	.	8ee-XL	de'
.	.	.	.	.	.	.	.	.	.	8ddJ	.
.	.	.	.	.	.	.	.	.	.	8ccL	.
.	.	.	.	.	.	.	.	.	.	8b-yJ	.
=21	=21	=21	=21	=21	=21	=21	=21	=21	=21	=21	=21
2F	.	1r	.	1r	.	1r	.	1r	.	4cc	Fag-
.	.	.	.	.	.	.	.	.	.	4.dd	-gi e
2F	6	.	.	.	.	.	.	.	.	.	.
.	.	.	.	.	.	.	.	.	.	16ccL	.
.	.	.	.	.	.	.	.	.	.	16b-yJ	.
.	.	.	.	.	.	.	.	.	.	16aL	.
.	.	.	.	.	.	.	.	.	.	16b-y	.
.	.	.	.	.	.	.	.	.	.	16cc	.
.	.	.	.	.	.	.	.	.	.	16aJ	.
=22	=22	=22	=22	=22	=22	=22	=22	=22	=22	=22	=22
2G	.	1r	.	1r	.	1r	.	1r	.	4b-y	.
.	.	.	.	.	.	.	.	.	.	2g	de'
2F	.	.	.	.	.	.	.	.	.	.	.
.	.	.	.	.	.	.	.	.	.	4a	gli Al-
=23	=23	=23	=23	=23	=23	=23	=23	=23	=23	=23	=23
1E-X	.	1r	.	1r	.	1r	.	1r	.	4.b-y	-lo-
.	.	.	.	.	.	.	.	.	.	16ccL	.
.	.	.	.	.	.	.	.	.	.	16ddJ	.
.	.	.	.	.	.	.	.	.	.	8ee-XL	.
.	.	.	.	.	.	.	.	.	.	[8gJ	.
.	.	.	.	.	.	.	.	.	.	4g]	.
=24	=24	=24	=24	=24	=24	=24	=24	=24	=24	=24	=24
2.D	#	1r	.	1r	.	1r	.	4r	.	2a	-ri
.	.	.	.	.	.	.	.	4A	Se-	.	.
.	.	.	.	.	.	.	.	8B-y	-gnò	2r	.
.	.	.	.	.	.	.	.	8B-y	l'a-	.	.
4E-X	.	.	.	.	.	.	.	8A	-ma-	.	.
.	.	.	.	.	.	.	.	8G	-to	.	.
=25	=25	=25	=25	=25	=25	=25	=25	=25	=25	=25	=25
4D	.	1r	.	1r	.	1r	.	8.FL	no-	4r	.
.	.	.	.	.	.	.	.	16GJ	.	.	.
4C	.	.	.	.	.	.	.	16AL	.	4a	Se-
.	.	.	.	.	.	.	.	16B-y	.	.	.
.	.	.	.	.	.	.	.	16c	.	.	.
.	.	.	.	.	.	.	.	16AJ	.	.	.
2BB-y	.	.	.	.	.	.	.	4d	.	8b-y	-gnò
.	.	.	.	.	.	.	.	.	.	8b-y	l'a-
.	.	.	.	.	.	.	.	4d	-me,	8a	-ma-
.	.	.	.	.	.	.	.	.	.	8g	-to
=26	=26	=26	=26	=26	=26	=26	=26	=26	=26	=26	=26
4B-y	.	1r	.	1r	.	1r	.	4r	.	8.fL	no-
.	.	.	.	.	.	.	.	.	.	16gJ	.
4A	.	.	.	.	.	.	.	4A	Se-	16aL	.
.	.	.	.	.	.	.	.	.	.	16b-y	.
.	.	.	.	.	.	.	.	.	.	16cc	.
.	.	.	.	.	.	.	.	.	.	16aJ	.
2G	.	.	.	.	.	.	.	8B-y	-gnò	4dd	.
.	.	.	.	.	.	.	.	8B-y	l'a-	.	.
.	.	.	.	.	.	.	.	8A	-ma-	4dd	-me,
.	.	.	.	.	.	.	.	8G	-to	.	.
=27	=27	=27	=27	=27	=27	=27	=27	=27	=27	=27	=27
2F	.	1r	.	1r	.	1r	.	8.AL	no-	4r	.
.	.	.	.	.	.	.	.	16B-yJ	.	.	.
.	.	.	.	.	.	.	.	16cL	.	4a	Se-
.	.	.	.	.	.	.	.	16d	.	.	.
.	.	.	.	.	.	.	.	16e	.	.	.
.	.	.	.	.	.	.	.	16cJ	.	.	.
2F	.	.	.	.	.	.	.	4f	.	8cc	-gnò
.	.	.	.	.	.	.	.	.	.	8cc	l'a-
.	.	.	.	.	.	.	.	4f	-me	8b-y	-ma-
.	.	.	.	.	.	.	.	.	.	8a	-to
=28	=28	=28	=28	=28	=28	=28	=28	=28	=28	=28	=28
2G	.	1r	.	1r	.	1r	.	4r	.	8.b-yL	no-
.	.	.	.	.	.	.	.	.	.	16ccJ	.
.	.	.	.	.	.	.	.	4d	in	16ddL	.
.	.	.	.	.	.	.	.	.	.	16ee	.
.	.	.	.	.	.	.	.	.	.	16ff	.
.	.	.	.	.	.	.	.	.	.	16ddJ	.
2E-X	.	.	.	.	.	.	.	2g	mil-	4ee-X	.
.	.	.	.	.	.	.	.	.	.	4b-y	-me in
=29	=29	=29	=29	=29	=29	=29	=29	=29	=29	=29	=29
2C	.	1r	.	1r	.	1r	.	4g	-le	4cc	mil-
.	.	.	.	.	.	.	.	2g	gui-	8b-yL	-le
.	.	.	.	.	.	.	.	.	.	16cc	.
.	.	.	.	.	.	.	.	.	.	16ddJ	.
2D	.	.	.	.	.	.	.	.	.	2a	gui-
.	.	.	.	.	.	.	.	4f#X	.	.	.
=30	=30	=30	=30	=30	=30	=30	=30	=30	=30	=30	=30
4GG	.	1r	.	8r	.	1r	.	2g	-se;	2g	-se;
.	.	.	.	8d	E	.	.	.	.	.	.
2G	.	.	.	8d	de'	.	.	.	.	.	.
.	.	.	.	8d	suoi	.	.	.	.	.	.
.	.	.	.	8.d	stra-	.	.	2r	.	2r	.
.	.	.	.	16d	-ni ed	.	.	.	.	.	.
4F#X	.	.	.	8d	in-	.	.	.	.	.	.
.	.	.	.	8c	-fe-	.	.	.	.	.	.
=31	=31	=31	=31	=31	=31	=31	=31	=31	=31	=31	=31
4G	.	2r	.	4.B-y	-li-	2r	.	2r	.	1r	.
4A	.	.	.	.	.	.	.	.	.	.	.
.	.	.	.	8A	-ci a-	.	.	.	.	.	.
[2B-y	.	8r	.	4B-y	-mo-	8r	.	8r	.	.	.
.	.	8B-y	E	.	.	8d	E	8f	E	.	.
.	.	8B-y	de'	4B-y	-ri	8d	de'	8f	de'	.	.
.	.	8B-y	suoi	.	.	8d	suoi	8f	suoi	.	.
=32	=32	=32	=32	=32	=32	=32	=32	=32	=32	=32	=32
4B-]	.	8.B-y	stra-	1r	.	8.d	stra-	8.f	stra-	1r	.
.	.	16B-y	-ni ed	.	.	16d	-ni ed	16f	-ni ed	.	.
4A	.	8B-y	in-	.	.	8d	in-	8f	in-	.	.
.	.	8A	-fe-	.	.	8c	-fe-	8f	-fe-	.	.
2G	.	4.G	-li-	.	.	4B-y	-li-	4f	-li-	.	.
.	.	.	.	.	.	4B-y	-ci a-	4e	-ci a-	.	.
.	.	8G	-ci a-	.	.	.	.	.	.	.	.
=33	=33	=33	=33	=33	=33	=33	=33	=33	=33	=33	=33
2F	.	4F	-mo-	4c	Gli a-	4A	-mo-	4f	-mo-	4a	Gli a-
.	.	4F	-ri	8d	-spri	4A	-ri	4f	-ri	8b-y	-spri
.	.	.	.	8e	suc-	.	.	.	.	8cc	suc-
2D	.	4D	Gli a-	8f	-ces-	2r	.	2r	.	8dd	-ces-
.	.	.	.	8f	-si in	.	.	.	.	8dd	-si in
.	.	8E	-spri	8f	mil-	.	.	.	.	8dd	mil-
.	.	8F	suc-	8e	-le	.	.	.	.	8cc	-le
=34	=34	=34	=34	=34	=34	=34	=34	=34	=34	=34	=34
2G	.	8G	-ces-	2d	par-	4G	Gli a-	4B-y	Gli a-	2b-y	par-
.	.	8G	-si in	.	.	.	.	.	.	.	.
.	.	8G	mil-	.	.	8A	-spri	8c	-spri	.	.
.	.	8F	-le	.	.	8B-y	suc-	8d	suc-	.	.
4E-X	.	4E-X	par-	2G	-ti in-	8c	-ces-	8e-X	-ces-	[2g	-ti in-
.	.	.	.	.	.	8c	-si in	8e-i	-si in	.	.
4C	.	4C	-ti in-	.	.	8c	mil-	8e-i	mil-	.	.
.	.	.	.	.	.	8B-y	-le	8d	-le	.	.
=35	=35	=35	=35	=35	=35	=35	=35	=35	=35	=35	=35
1D	.	1D	-ci-	4d	-ci-	4A	par-	4d	par-	4g]	.
.	.	.	.	8cL	.	4G	-ti in-	4d	-ti in-	2g	-ci-
.	.	.	.	8B-yJ	.	.	.	.	.	.	.
.	.	.	.	2A	.	2A	-ci-	2d	-ci-	.	.
.	.	.	.	.	.	.	.	.	.	4f#X	.
=36	=36	=36	=36	=36	=36	=36	=36	=36	=36	=36	=36
1GG	.	1GG	-se.	1BnX	-se.	1G	-se.	1d	-se.	1g	-se.
=37||	=37||	=37||	=37||	=37||	=37||	=37||	=37||	=37||	=37||	=37||	=37||
!!LO:TX:a:t=[Terza parte.]
2.B-y	.	1r	.	1r	.	2r	.	2r	.	1r	.
.	.	.	.	.	.	2B-y	E'n	2d	E'n	.	.
4A	.	.	.	.	.	.	.	.	.	.	.
=38	=38	=38	=38	=38	=38	=38	=38	=38	=38	=38	=38
1G	.	1r	.	1r	.	(8GL	ri-	(8B-yL	ri-	1r	.
.	.	.	.	.	.	8A)J	.	8c)J	.	.	.
.	.	.	.	.	.	(8B-yL	-le-	(8dL	-le-	.	.
.	.	.	.	.	.	8G)J	.	8B-y)J	.	.	.
.	.	.	.	.	.	8B-yL	-gen-	(8e-XL	-gen-	.	.
.	.	.	.	.	.	[8AJ	.	8d)J	.	.	.
.	.	.	.	.	.	8.A]	.	(8cL	-do	.	.
.	.	.	.	.	.	.	.	8B-y)J	.	.	.
.	.	.	.	.	.	16G	-do	.	.	.	.
=39	=39	=39	=39	=39	=39	=39	=39	=39	=39	=39	=39
2F	.	1r	.	1r	.	2A	poi	4.c	poi	1r	.
.	.	.	.	.	.	.	.	8A	le	.	.
2F	6	.	.	.	.	8r	.	16AL	pro-	.	.
.	.	.	.	.	.	.	.	16B-y	.	.	.
.	.	.	.	.	.	8F	le	16c	.	.	.
.	.	.	.	.	.	.	.	16AJ	.	.	.
.	.	.	.	.	.	16FL	pro-	[4d	.	.	.
.	.	.	.	.	.	16G	.	.	.	.	.
.	.	.	.	.	.	16A	.	.	.	.	.
.	.	.	.	.	.	16FJ	.	.	.	.	.
=40	=40	=40	=40	=40	=40	=40	=40	=40	=40	=40	=40
2G	.	1r	.	1r	.	4.B-y	.	8d]L	.	1r	.
.	.	.	.	.	.	.	.	8cJ	.	.	.
.	.	.	.	.	.	.	.	8dL	.	.	.
.	.	.	.	.	.	8G	.	8eJ	.	.	.
2F	.	.	.	.	.	8AL	.	4f	.	.	.
.	.	.	.	.	.	8B-yJ	.	.	.	.	.
.	.	.	.	.	.	[4c	.	4F	-prie	.	.
=41	=41	=41	=41	=41	=41	=41	=41	=41	=41	=41	=41
1E-X	.	1r	.	2r	.	4.c]	.	8GL	no-	1r	.
.	.	.	.	.	.	.	.	8FJ	.	.	.
.	.	.	.	.	.	.	.	16GL	.	.	.
.	.	.	.	.	.	.	.	16F	.	.	.
.	.	.	.	.	.	8G	-prie	16G	.	.	.
.	.	.	.	.	.	.	.	16AJ	.	.	.
.	.	.	.	4r	.	2G	no-	4B-y	.	.	.
.	.	.	.	4G	Ri-	.	.	4c	.	.	.
=42	=42	=42	=42	=42	=42	=42	=42	=42	=42	=42	=42
(2D	#	1r	.	8A	-gò	2F#X	-te	2d	-te	1r	.
.	.	.	.	8A	di	.	.	.	.	.	.
.	.	.	.	8A	bel-	.	.	.	.	.	.
.	.	.	.	8A	-le	.	.	.	.	.	.
4D)	6	.	.	4.B-y	la-	4r	.	2r	.	.	.
4E-X	6	.	.	.	.	4G	Ri-	.	.	.	.
.	.	.	.	8c	-gri-	.	.	.	.	.	.
=43	=43	=43	=43	=43	=43	=43	=43	=43	=43	=43	=43
4D	.	1r	.	8dL	-me	8A	-gò	1r	.	1r	.
.	.	.	.	8DJ	.	8A	di	.	.	.	.
4C	.	.	.	8EL	.	8A	bel-	.	.	.	.
.	.	.	.	8FJ	.	8A	-le	.	.	.	.
[2BB-y	.	.	.	8GL	.	4.B-y	la-	.	.	.	.
.	.	.	.	8AJ	.	.	.	.	.	.	.
.	.	.	.	[4B-y	.	.	.	.	.	.	.
.	.	.	.	.	.	8c	-gri-	.	.	.	.
=44	=44	=44	=44	=44	=44	=44	=44	=44	=44	=44	=44
4BB-]	.	2r	.	4B-]	.	8dL	-me	2r	.	4r	.
.	.	.	.	.	.	8DJ	.	.	.	.	.
4AA	.	.	.	4A	le	8EL	.	.	.	4a	Ri-
.	.	.	.	.	.	8FJ	.	.	.	.	.
2GG	.	4r	.	2G	go-	8GL	.	4r	.	8b-y	-gò
.	.	.	.	.	.	8AJ	.	.	.	8b-y	di
.	.	4G	Ri-	.	.	[4B-y	.	4d	Ri-	8b-y	bel-
.	.	.	.	.	.	.	.	.	.	8b-y	-le
=45	=45	=45	=45	=45	=45	=45	=45	=45	=45	=45	=45
2FF	.	8A	-gò	2F	-te,	4B-]	.	8f	-gò	2.cc	la-
.	.	8A	di	.	.	.	.	8f	di	.	.
.	.	8A	bel-	.	.	4A	le	8f	bel-	.	.
.	.	8B-y	-le	.	.	.	.	8g	-le	.	.
2F	.	4c	la-	4r	.	4A	go-	4.a	la-	.	.
.	.	4c	-gri-	4A	Ri-	4F	-te,	.	.	4a	-gri-
.	.	.	.	.	.	.	.	8a	-gri-	.	.
=46	=46	=46	=46	=46	=46	=46	=46	=46	=46	=46	=46
2G	.	8B-yL	-me	8B-y	-gò	4r	.	4g	-me,	8ddL	-me
.	.	8AJ	.	8B-y	di	.	.	.	.	8ccJ	.
.	.	8GL	.	8B-y	bel-	4G	Ri-	4d	Ri-	8b-yL	.
.	.	8FJ	.	8B-y	-le	.	.	.	.	8aJ	.
2E-X	.	8.E-XL	.	[2c	la-	8G	-gò	8e-X	-gò	2g	.
.	.	.	.	.	.	8G	di	8e-i	di	.	.
.	.	16FJ	.	.	.	.	.	.	.	.	.
.	.	8.E-iL	.	.	.	8G	bel-	8e-i	bel-	.	.
.	.	.	.	.	.	8G	-le	8e-i	-le	.	.
.	.	16DJ	.	.	.	.	.	.	.	.	.
=47	=47	=47	=47	=47	=47	=47	=47	=47	=47	=47	=47
2C	.	4C	.	8c]	.	8A	la-	8.e-i	la-	4r	.
.	.	.	.	8B-y	-gri-	8G	-gri-	.	.	.	.
.	.	.	.	.	.	.	.	16e-i	-gri-	.	.
.	.	4C	le	8B-y	-me	8G	-me	8.e-i	-me	4a	le
.	.	.	.	8A	le	8G	le	.	.	.	.
.	.	.	.	.	.	.	.	16d	le	.	.
2D	.	2D	go-	2A	go-	4G	go-	2d	go-	2a	go-
.	.	.	.	.	.	(4F#X	-te.	.	.	.	.
=48	=48	=48	=48	=48	=48	=48	=48	=48	=48	=48	=48
4GG	.	2GG	-te,	2BnXl	-te.	2G)l	.	2dl	-te.	2g	-te,
2G	.	.	.	.	.	.	.	.	.	.	.
.	.	4r	.	2r	.	2r	.	2r	.	4r	.
4F#X	.	4D	E'n	.	.	.	.	.	.	4a	E'n
=49	=49	=49	=49	=49	=49	=49	=49	=49	=49	=49	=49
4G	.	(8GL	ri-	1r	.	1r	.	1r	.	(8b-yL	ri-
.	.	8F)J	.	.	.	.	.	.	.	8a)J	.
4A	.	(8GL	-le-	.	.	.	.	.	.	(8b-yL	-le-
.	.	8A)J	.	.	.	.	.	.	.	8cc)J	.
2B-y	.	(8B-yL	-gen-	.	.	.	.	.	.	(8ddL	-gen-
.	.	8A)J	.	.	.	.	.	.	.	8cc)J	.
.	.	(8B-yL	-do	.	.	.	.	.	.	(8ddL	-do
.	.	8G)J	.	.	.	.	.	.	.	8b-y)J	.
=50	=50	=50	=50	=50	=50	=50	=50	=50	=50	=50	=50
2A	.	8A	poi	1r	.	1r	.	1r	.	8cc	poi
.	.	8A	le	.	.	.	.	.	.	8cc	le
.	.	8G	pro-	.	.	.	.	.	.	8b-y	pro-
.	.	8F	-prie	.	.	.	.	.	.	8a	-prie
2G	.	2G	no-	.	.	.	.	.	.	2b-y	no-
=51	=51	=51	=51	=51	=51	=51	=51	=51	=51	=51	=51
2F	.	2F	-te	1r	.	1r	.	1r	.	4a	-te
.	.	.	.	.	.	.	.	.	.	4a	Ri-
2D	.	4r	.	.	.	.	.	.	.	8dd	-gò
.	.	.	.	.	.	.	.	.	.	8dd	di
.	.	4D	Ri-	.	.	.	.	.	.	8dd	bel-
.	.	.	.	.	.	.	.	.	.	8cc	-le
=52	=52	=52	=52	=52	=52	=52	=52	=52	=52	=52	=52
2G	.	8G	-gò	1r	.	1r	.	1r	.	4b-y	la-
.	.	8G	di	.	.	.	.	.	.	.	.
.	.	8G	bel-	.	.	.	.	.	.	4g	-gri-
.	.	8A	-le	.	.	.	.	.	.	.	.
4E-X	.	(4B-y	la-	.	.	.	.	.	.	4g	-me
4C	.	[4c)	.	.	.	.	.	.	.	(8aL	le
.	.	.	.	.	.	.	.	.	.	8b-y)J	.
=53	=53	=53	=53	=53	=53	=53	=53	=53	=53	=53	=53
1D	.	8c]	.	1r	.	1r	.	1r	.	4f#X	go-
.	.	8B-y	-gri-	.	.	.	.	.	.	.	.
.	.	8B-y	-me	.	.	.	.	.	.	2g	.
.	.	8A	le	.	.	.	.	.	.	.	.
.	.	2A	go-	.	.	.	.	.	.	.	.
.	.	.	.	.	.	.	.	.	.	4f#i	.
=54	=54	=54	=54	=54	=54	=54	=54	=54	=54	=54	=54
1GGl	.	1Gl	-te.	1r	.	1r	.	1r	.	1gl	-te.
==	==	==	==	==	==	==	==	==	==	==	==
*-	*-	*-	*-	*-	*-	*-	*-	*-	*-	*-	*-
!!!system-decoration: [*]
!!!RDF**kern: i = editorial accidental
!!!RDF**kern: l = terminal long
!!!ENC: Emiliano Ricciardi
!!!END:
!!!EED: Ricciardi, Emiliano
!!!EEV: 2020/08/08
!!!YEC: Copyright 2018 Emiliano Ricciardi, All Rights Reserved
!!!ONB: Translated from MusicXML on 2020/08/08
!!@@BEGIN:	VERSEDATA
!!@CATALOGNUM:	Tsg07019
!!@LAST_MODIFIED: 2020/07/12
!!@TITLE:		Sovente, allor che su gli estivi ardori
!!@CANTO:		VII
!!@OTTAVA:	19
!!@MANUSRC:	G-Al, G-Au, G-Br<sub>1</sub>, G-Br<sub>2</sub>, G-Es<sub>1</sub>, G-Es<sub>2</sub>, G-Es<sub>3</sub>, G-F, G-Fr, G-Fr<sub>1</sub>, G-Fr<sub>2</sub>, G-Mc<sub>1</sub>, G-Mr, G-Mg, G-Mt, G-N
!!@PRINTSRC:	G-1580CM, G-1581B, G-1581CV, G-1581R, G-1581MR, G-1581P, G-1581V, G-1581V<sub>bis</sub>, G-1582C, G-1582M, G-1582MC, G-1582P, G-1582SC, G-1582SC<sub>bis</sub>, G-1583S, G-1584O, G-1584S, G-1585C, G-1585S, G-1588S, G-1589S, G-1590B, G-1590S, G-1592S, G-1593S, G-1594C, G-1595C, G-1597C, G-1598C, G-1599C, G-1600C, G-1600S, G-1601C, G-1601R, G-1602C, G-1604C, G-1604Cl, G-1604F, G-1604P, G-1606B, G-1606B<sub>bis</sub>, G-1606L, G-1607ZR, G-1608DP, G-1609GC, G-1610M, G-1611S, G-1611V, G-1612P, G-1613M, G-1613P, G-1613V, G-1615P, G-1616M, G-1617P, G-1619B, G-1619V, G-1620M, G-1620S, G-1621R, G-1624I, G-1624MT, G-1625C, G-1625S, G-1625SS, G-1626C, G-1626Co, G-1627M, G-1628T, G-1628Tu, G-1630L, G-1630T, G-1632FT, G-1639CF, G-1642M, G-1643I, G-1644P, G-1644S
!!@@BEGIN:	VERSES
!!@ABOUTIT:
!!@ABOUTEN:
!!@EDITOR:	Angelo Solerti
!!@EDITION_TITLE: Gerusalemme liberata. Poema eroico di Torquato Tasso. Edizione critica sui manoscritti e le prime stampe.
!!@EDITION_LOC:	Florence
!!@EDITION_PUB:	G. Barbera
!!@EDITION_DATE:  1895
!!@EDITION_VOL:	2
!!@EDITION_PAGE:  260
!!@TRANSLATOR:	Emiliano Ricciardi and Amyrose McCue Gill
!!@VERSE:
!!	Sovente, allor che su gli estivi ardori
!!	Giacean le pecorelle a l’ombra assise,
!!	Nella scorza de’ faggi e de gli allori
!!	Segnò l’amato nome in mille guise:
!!	E de’ suoi strani ed infelici amori
!!	Gli aspri successi in mille piante incise;
!!	E in rileggendo poi le proprie note
!!	Rigò di belle lagrime le gote.
!!@MVERSE_DATE: 20230824
!!@MVERSE:
!!	So|ven||te,_al|lor|| che su||gli_e|sti||vi_ar|do||ri	=a
!!	Gia||cean le pe|co|rel||le_a l’om||bra_as|si||se,	=b
!!	Nel||la scor||za de’ fag||gi_e de gli_al|lo||ri		=a++
!!	Se|gnò|| l’a|ma||to no||me_in mil||le gui||se:		=b
!!	E de’ suoi stra||ni_ed in|fe|li||ci_a|mo||ri		=a++
!!	Gli_a||spri suc|ces||si_in mil||le pian||te_in|ci||se;	=b
!!	E_in ri|leg|gen||do poi le pro||prie no||te		=c
!!	Ri|gò|| di bel||le la|gri||me le go||te.		=c
!!@TVERSE:
!!	Often, when during the summer heatwaves
!!	Rest the lambs in the shade assembled,
!!	In the bark of beeches and of laurels
!!	She marked the beloved name in a thousand ways:
!!	And of its strange and unhappy loves
!!	Harsh events on a thousand trees carved;
!!	And while re-reading, then, her own accounts,
!!	Were streaked with beautiful tears her cheeks.
!!@@END:		VERSES
!!@OTHER_CRIT_ED:  Torquato Tasso, <i>Gerusalemme liberata</i>, ed. Lanfranco Caretti, 2 vols. (Bari: Laterza, 1967).
!!@ATTRIBUTION_ABOUT:
!!@DATING:	mid-1560s through 1570s
!!@DEDICATEE:	Duke Alfonso II d'Este
!!@COMMENTARY:
!!@@END:		VERSEDATA
!!@@BEGIN: SETTING
!!@CATALOGNUM:	Tsg07019d
!!@CANTO:		VII
!!@OTTAVA:	19
!!@TITLE:	Sovente, allor che su gli estivi ardori
!!@SETTINGTITLE: Sovente, all'hor ch'in su gli estivi ardori
!!@COMPOSER:	Ghizzolo, Giovanni
!!@PARTS:		1 of 1
!!@PRINCEPSTITLE:	Il terzo libro de madrigali a cinque voci, in parte ancor concertati co 'l clavicembalo 
!!@PRINCEPSLOC:	Venice
!!@NORMLOC:	Venice
!!@NORMPUB:	Alessandro Vincenzi
!!@NORMPUBSHORT:	A. Vincenzi
!!@PRINCEPSPUB:	Alessandro Vincenti
!!@PRINCEPSYEAR:	1621
!!@PRINCEPSRISM:	G 1807
!!@OVOICES:	5+bc
!!@EXTANTVOICES:	5+bc
!!@OMENSURATION:	C
!!@OCLEFS:	C1,C3,C4,C4,F4,F4
!!@OTIME:		
!!@OKEYSIG:	b-
!!@FINAL:	(G)(G)G
!!@TIMPEDITOR:	Ricciardi, Emiliano
!!@REPRINTS:	
!!@@END: SETTING
